packages/tokens/icons/browser2/size24Px.svg

<svg viewBox="0 0 24 24" fill="none" xmlns="http://www.w3.org/2000/svg" width="1em" height="1em"><path d="M2.5 11C2.5 10.1716 3.17157 9.5 4 9.5H15C15.8284 9.5 16.5 10.1716 16.5 11V18C16.5 18.8284 15.8284 19.5 15 19.5H4C3.17157 19.5 2.5 18.8284 2.5 18L2.5 11Z" stroke="currentColor"/><circle cx="4.5" cy="11.5" r="0.25" stroke="currentColor" stroke-width="0.5"/><circle cx="6.5" cy="11.5" r="0.25" stroke="currentColor" stroke-width="0.5"/><circle cx="8.5" cy="11.5" r="0.25" stroke="currentColor" stroke-width="0.5"/><path d="M7.5 6.5V6.5C7.5 5.39543 8.39543 4.5 9.5 4.5L19.5 4.5C20.6046 4.5 21.5 5.39543 21.5 6.5V12.5C21.5 13.6046 20.6046 14.5 19.5 14.5V14.5" stroke="currentColor" stroke-linecap="round"/><path d="M9.75 6.5C9.75 6.63807 9.63807 6.75 9.5 6.75C9.36193 6.75 9.25 6.63807 9.25 6.5C9.25 6.36193 9.36193 6.25 9.5 6.25C9.63807 6.25 9.75 6.36193 9.75 6.5ZM11.75 6.5C11.75 6.63807 11.6381 6.75 11.5 6.75C11.3619 6.75 11.25 6.63807 11.25 6.5C11.25 6.36193 11.3619 6.25 11.5 6.25C11.6381 6.25 11.75 6.36193 11.75 6.5ZM13.75 6.5C13.75 6.63807 13.6381 6.75 13.5 6.75C13.3619 6.75 13.25 6.63807 13.25 6.5C13.25 6.36193 13.3619 6.25 13.5 6.25C13.6381 6.25 13.75 6.36193 13.75 6.5Z" stroke="currentColor" stroke-width="0.5"/></svg>

<svg xmlns="http://www.w3.org/2000/svg" fill="none" viewBox="0 0 24 24" width="1em" height="1em"><path stroke="currentColor" d="M2.5 11A1.5 1.5 0 0 1 4 9.5h11a1.5 1.5 0 0 1 1.5 1.5v7a1.5 1.5 0 0 1-1.5 1.5H4A1.5 1.5 0 0 1 2.5 18v-7Z"/><circle cx="4.5" cy="11.5" r=".25" stroke="currentColor" stroke-width=".5"/><circle cx="6.5" cy="11.5" r=".25" stroke="currentColor" stroke-width=".5"/><circle cx="8.5" cy="11.5" r=".25" stroke="currentColor" stroke-width=".5"/><path stroke="currentColor" stroke-linecap="round" d="M7.5 6.5v0a2 2 0 0 1 2-2h10a2 2 0 0 1 2 2v6a2 2 0 0 1-2 2v0"/><path stroke="currentColor" stroke-width=".5" d="M9.75 6.5a.25.25 0 1 1-.5 0 .25.25 0 0 1 .5 0Zm2 0a.25.25 0 1 1-.5 0 .25.25 0 0 1 .5 0Zm2 0a.25.25 0 1 1-.5 0 .25.25 0 0 1 .5 0Z"/></svg>
